dist/img/icons/forget/search.svg

<svg width="38" height="39" viewBox="0 0 38 39" fill="none" xmlns="http://www.w3.org/2000/svg">
<g clip-path="url(#clip0)">
<mask id="path-1-inside-1" fill="white">
<path fill-rule="evenodd" clip-rule="evenodd" d="M28.9641 5.07031L25.7985 1.90365H5.87067L2.70511 5.07031H28.9641ZM0.273349 5.26372L4.984 0.553062C5.13125 0.404229 5.33234 0.320312 5.54292 0.320312H26.1263C26.3368 0.320312 26.5379 0.404229 26.6868 0.551479L31.4368 5.30148C31.6041 5.46887 31.6808 5.69305 31.6667 5.91243V12.1953C31.6667 12.6323 31.312 12.987 30.875 12.987H30.0835V17.0405C30.0835 17.4775 29.7288 17.8321 29.2918 17.8321C28.8548 17.8321 28.5002 17.4775 28.5002 17.0405V12.9871H3.16682V29.6121C3.16682 30.0475 3.52307 30.4038 3.95848 30.4038H16.6252C17.0622 30.4038 17.4168 30.7585 17.4168 31.1955C17.4168 31.6325 17.0622 31.9871 16.6252 31.9871H3.95848C2.64907 31.9871 1.58348 30.9215 1.58348 29.6121V12.987H0.791667C0.354667 12.987 0 12.6323 0 12.1953V5.86198C0 5.62315 0.105935 5.40891 0.273349 5.26372ZM1.58333 11.4036H30.0833V6.65365H1.58333V11.4036ZM19 27.237C19 31.6022 22.5514 35.1537 26.9167 35.1537C28.8144 35.1537 30.5583 34.4825 31.9235 33.365L36.6479 38.0894C36.8031 38.243 37.0057 38.3206 37.2084 38.3206C37.4111 38.3206 37.6137 38.243 37.7673 38.0894C38.0761 37.7807 38.0761 37.2788 37.7673 36.97L33.0431 32.2458C34.1615 30.8803 34.8333 29.1356 34.8333 27.237C34.8333 22.8717 31.2819 19.3203 26.9167 19.3203C22.5514 19.3203 19 22.8717 19 27.237ZM20.5833 27.237C20.5833 23.7441 23.4238 20.9036 26.9167 20.9036C30.4095 20.9036 33.25 23.7441 33.25 27.237C33.25 30.7298 30.4095 33.5703 26.9167 33.5703C23.4238 33.5703 20.5833 30.7298 20.5833 27.237ZM11.8751 17.7371H19.7918C20.2288 17.7371 20.5835 17.3825 20.5835 16.9455C20.5835 16.5085 20.2288 16.1538 19.7918 16.1538H11.8751C11.4382 16.1538 11.0835 16.5085 11.0835 16.9455C11.0835 17.3825 11.4382 17.7371 11.8751 17.7371Z"/>
</mask>
<path fill-rule="evenodd" clip-rule="evenodd" d="M28.9641 5.07031L25.7985 1.90365H5.87067L2.70511 5.07031H28.9641ZM0.273349 5.26372L4.984 0.553062C5.13125 0.404229 5.33234 0.320312 5.54292 0.320312H26.1263C26.3368 0.320312 26.5379 0.404229 26.6868 0.551479L31.4368 5.30148C31.6041 5.46887 31.6808 5.69305 31.6667 5.91243V12.1953C31.6667 12.6323 31.312 12.987 30.875 12.987H30.0835V17.0405C30.0835 17.4775 29.7288 17.8321 29.2918 17.8321C28.8548 17.8321 28.5002 17.4775 28.5002 17.0405V12.9871H3.16682V29.6121C3.16682 30.0475 3.52307 30.4038 3.95848 30.4038H16.6252C17.0622 30.4038 17.4168 30.7585 17.4168 31.1955C17.4168 31.6325 17.0622 31.9871 16.6252 31.9871H3.95848C2.64907 31.9871 1.58348 30.9215 1.58348 29.6121V12.987H0.791667C0.354667 12.987 0 12.6323 0 12.1953V5.86198C0 5.62315 0.105935 5.40891 0.273349 5.26372ZM1.58333 11.4036H30.0833V6.65365H1.58333V11.4036ZM19 27.237C19 31.6022 22.5514 35.1537 26.9167 35.1537C28.8144 35.1537 30.5583 34.4825 31.9235 33.365L36.6479 38.0894C36.8031 38.243 37.0057 38.3206 37.2084 38.3206C37.4111 38.3206 37.6137 38.243 37.7673 38.0894C38.0761 37.7807 38.0761 37.2788 37.7673 36.97L33.0431 32.2458C34.1615 30.8803 34.8333 29.1356 34.8333 27.237C34.8333 22.8717 31.2819 19.3203 26.9167 19.3203C22.5514 19.3203 19 22.8717 19 27.237ZM20.5833 27.237C20.5833 23.7441 23.4238 20.9036 26.9167 20.9036C30.4095 20.9036 33.25 23.7441 33.25 27.237C33.25 30.7298 30.4095 33.5703 26.9167 33.5703C23.4238 33.5703 20.5833 30.7298 20.5833 27.237ZM11.8751 17.7371H19.7918C20.2288 17.7371 20.5835 17.3825 20.5835 16.9455C20.5835 16.5085 20.2288 16.1538 19.7918 16.1538H11.8751C11.4382 16.1538 11.0835 16.5085 11.0835 16.9455C11.0835 17.3825 11.4382 17.7371 11.8751 17.7371Z" fill="#236EFF"/>
<path d="M28.9641 5.07031V5.17031H29.2054L29.0348 4.99961L28.9641 5.07031ZM25.7985 1.90365L25.8692 1.83295L25.8399 1.80365H25.7985V1.90365ZM5.87067 1.90365V1.80365H5.82924L5.79995 1.83295L5.87067 1.90365ZM2.70511 5.07031L2.63439 4.99961L2.46375 5.17031H2.70511V5.07031ZM0.273349 5.26372L0.339033 5.33946L0.344059 5.33443L0.273349 5.26372ZM4.984 0.553062L5.05472 0.623774L5.05509 0.623394L4.984 0.553062ZM26.6868 0.551479L26.7575 0.480768L26.7571 0.480391L26.6868 0.551479ZM31.4368 5.30148L31.366 5.37219L31.4368 5.30148ZM31.6667 5.91243L31.5667 5.906V5.91243H31.6667ZM30.0835 12.987V12.887H29.9835V12.987H30.0835ZM28.5002 12.9871H28.6002V12.8871H28.5002V12.9871ZM3.16682 12.9871V12.8871H3.06682V12.9871H3.16682ZM1.58348 12.987H1.68348V12.887H1.58348V12.987ZM30.0833 11.4036V11.5036H30.1833V11.4036H30.0833ZM1.58333 11.4036H1.48333V11.5036H1.58333V11.4036ZM30.0833 6.65365H30.1833V6.55365H30.0833V6.65365ZM1.58333 6.65365V6.55365H1.48333V6.65365H1.58333ZM31.9235 33.365L31.9942 33.2943L31.9302 33.2303L31.8601 33.2876L31.9235 33.365ZM36.6479 38.0894L36.5772 38.1601L36.5775 38.1605L36.6479 38.0894ZM37.7673 36.97L37.838 36.8993L37.7673 36.97ZM33.0431 32.2458L32.9657 32.1824L32.9083 32.2525L32.9724 32.3165L33.0431 32.2458ZM29.0348 4.99961L25.8692 1.83295L25.7278 1.97434L28.8933 5.14101L29.0348 4.99961ZM25.7985 1.80365H5.87067V2.00365H25.7985V1.80365ZM5.79995 1.83295L2.63439 4.99961L2.77584 5.14101L5.94139 1.97434L5.79995 1.83295ZM28.9641 4.97031H2.70511V5.17031H28.9641V4.97031ZM0.344059 5.33443L5.05471 0.623773L4.91329 0.482352L0.202638 5.19301L0.344059 5.33443ZM5.05509 0.623394C5.1835 0.493606 5.35896 0.420313 5.54292 0.420313V0.220312C5.30571 0.220312 5.07901 0.314853 4.91292 0.482731L5.05509 0.623394ZM5.54292 0.420313H26.1263V0.220312H5.54292V0.420313ZM26.1263 0.420313C26.3102 0.420313 26.4861 0.493611 26.6164 0.622567L26.7571 0.480391C26.5898 0.314848 26.3635 0.220312 26.1263 0.220312V0.420313ZM26.616 0.62219L31.366 5.37219L31.5075 5.23077L26.7575 0.480769L26.616 0.62219ZM31.366 5.37219C31.5122 5.51835 31.5792 5.71403 31.5669 5.90601L31.7665 5.91886C31.7823 5.67207 31.6961 5.41939 31.5075 5.23077L31.366 5.37219ZM31.7667 12.1953V5.91243H31.5667V12.1953H31.7667ZM30.875 13.087C31.3672 13.087 31.7667 12.6875 31.7667 12.1953H31.5667C31.5667 12.5771 31.2568 12.887 30.875 12.887V13.087ZM30.0835 13.087H30.875V12.887H30.0835V13.087ZM30.1835 17.0405V12.987H29.9835V17.0405H30.1835ZM29.2918 17.9321C29.784 17.9321 30.1835 17.5327 30.1835 17.0405H29.9835C29.9835 17.4222 29.6736 17.7321 29.2918 17.7321V17.9321ZM28.4002 17.0405C28.4002 17.5327 28.7996 17.9321 29.2918 17.9321V17.7321C28.91 17.7321 28.6002 17.4222 28.6002 17.0405H28.4002ZM28.4002 12.9871V17.0405H28.6002V12.9871H28.4002ZM3.16682 13.0871H28.5002V12.8871H3.16682V13.0871ZM3.26682 29.6121V12.9871H3.06682V29.6121H3.26682ZM3.95848 30.3038C3.5783 30.3038 3.26682 29.9923 3.26682 29.6121H3.06682C3.06682 30.1028 3.46784 30.5038 3.95848 30.5038V30.3038ZM16.6252 30.3038H3.95848V30.5038H16.6252V30.3038ZM17.5168 31.1955C17.5168 30.7032 17.1174 30.3038 16.6252 30.3038V30.5038C17.0069 30.5038 17.3168 30.8137 17.3168 31.1955H17.5168ZM16.6252 32.0871C17.1174 32.0871 17.5168 31.6877 17.5168 31.1955H17.3168C17.3168 31.5772 17.0069 31.8871 16.6252 31.8871V32.0871ZM3.95848 32.0871H16.6252V31.8871H3.95848V32.0871ZM1.48348 29.6121C1.48348 30.9768 2.59384 32.0871 3.95848 32.0871V31.8871C2.7043 31.8871 1.68348 30.8663 1.68348 29.6121H1.48348ZM1.48348 12.987V29.6121H1.68348V12.987H1.48348ZM0.791667 13.087H1.58348V12.887H0.791667V13.087ZM-0.1 12.1953C-0.1 12.6875 0.299438 13.087 0.791667 13.087V12.887C0.409895 12.887 0.1 12.5771 0.1 12.1953H-0.1ZM-0.1 5.86198V12.1953H0.1V5.86198H-0.1ZM0.20783 5.18817C0.0194722 5.35153 -0.1 5.59292 -0.1 5.86198H0.1C0.1 5.65338 0.192397 5.46629 0.338867 5.33926L0.20783 5.18817ZM30.0833 11.3036H1.58333V11.5036H30.0833V11.3036ZM29.9833 6.65365V11.4036H30.1833V6.65365H29.9833ZM1.58333 6.75365H30.0833V6.55365H1.58333V6.75365ZM1.68333 11.4036V6.65365H1.48333V11.4036H1.68333ZM26.9167 35.0537C22.6066 35.0537 19.1 31.547 19.1 27.237H18.9C18.9 31.6575 22.4962 35.2537 26.9167 35.2537V35.0537ZM31.8601 33.2876C30.5121 34.391 28.7904 35.0537 26.9167 35.0537V35.2537C28.8384 35.2537 30.6045 34.5739 31.9868 33.4424L31.8601 33.2876ZM36.7186 38.0187L31.9942 33.2943L31.8528 33.4357L36.5772 38.1601L36.7186 38.0187ZM37.2084 38.2206C37.0312 38.2206 36.8541 38.1528 36.7182 38.0184L36.5775 38.1605C36.752 38.3332 36.9802 38.4206 37.2084 38.4206V38.2206ZM37.6966 38.0187C37.5625 38.1528 37.3856 38.2206 37.2084 38.2206V38.4206C37.4365 38.4206 37.6649 38.3332 37.838 38.1601L37.6966 38.0187ZM37.6966 37.0407C37.9663 37.3104 37.9663 37.749 37.6966 38.0187L37.838 38.1601C38.1858 37.8123 38.1858 37.2471 37.838 36.8993L37.6966 37.0407ZM32.9724 32.3165L37.6966 37.0407L37.838 36.8993L33.1138 32.1751L32.9724 32.3165ZM34.7333 27.237C34.7333 29.1116 34.0701 30.8341 32.9657 32.1824L33.1204 32.3091C34.2529 30.9265 34.9333 29.1596 34.9333 27.237H34.7333ZM26.9167 19.4203C31.2267 19.4203 34.7333 22.927 34.7333 27.237H34.9333C34.9333 22.8165 31.3372 19.2203 26.9167 19.2203V19.4203ZM19.1 27.237C19.1 22.927 22.6066 19.4203 26.9167 19.4203V19.2203C22.4962 19.2203 18.9 22.8165 18.9 27.237H19.1ZM26.9167 20.8036C23.3686 20.8036 20.4833 23.6889 20.4833 27.237H20.6833C20.6833 23.7994 23.4791 21.0036 26.9167 21.0036V20.8036ZM33.35 27.237C33.35 23.6889 30.4647 20.8036 26.9167 20.8036V21.0036C30.3543 21.0036 33.15 23.7994 33.15 27.237H33.35ZM26.9167 33.6703C30.4647 33.6703 33.35 30.785 33.35 27.237H33.15C33.15 30.6746 30.3543 33.4703 26.9167 33.4703V33.6703ZM20.4833 27.237C20.4833 30.785 23.3686 33.6703 26.9167 33.6703V33.4703C23.4791 33.4703 20.6833 30.6746 20.6833 27.237H20.4833ZM19.7918 17.6371H11.8751V17.8371H19.7918V17.6371ZM20.4835 16.9455C20.4835 17.3272 20.1736 17.6371 19.7918 17.6371V17.8371C20.284 17.8371 20.6835 17.4377 20.6835 16.9455H20.4835ZM19.7918 16.2538C20.1736 16.2538 20.4835 16.5637 20.4835 16.9455H20.6835C20.6835 16.4532 20.284 16.0538 19.7918 16.0538V16.2538ZM11.8751 16.2538H19.7918V16.0538H11.8751V16.2538ZM11.1835 16.9455C11.1835 16.5637 11.4934 16.2538 11.8751 16.2538V16.0538C11.3829 16.0538 10.9835 16.4532 10.9835 16.9455H11.1835ZM11.8751 17.6371C11.4934 17.6371 11.1835 17.3272 11.1835 16.9455H10.9835C10.9835 17.4377 11.3829 17.8371 11.8751 17.8371V17.6371Z" fill="#236EFF" mask="url(#path-1-inside-1)"/>
</g>
<defs>
<clipPath id="clip0">
<rect width="38" height="38" fill="white" transform="translate(0 0.320312)"/>
</clipPath>
</defs>
</svg>

<svg width="38" height="39" fill="none" xmlns="http://www.w3.org/2000/svg"><g clip-path="url(#clip0)"><mask id="a" fill="#fff"><path fill-rule="evenodd" clip-rule="evenodd" d="M28.964 5.07L25.8 1.904H5.87L2.705 5.07h26.26zm-28.69.194l4.71-4.71A.786.786 0 015.543.32h20.583c.21 0 .412.084.56.231l4.75 4.75a.79.79 0 01.23.611v6.283a.792.792 0 01-.791.792h-.791v4.054a.792.792 0 01-1.584 0v-4.054H3.167v16.625c0 .436.356.792.791.792h12.667a.792.792 0 010 1.583H3.958a2.378 2.378 0 01-2.375-2.375V12.987H.792A.792.792 0 010 12.195V5.862a.79.79 0 01.273-.598zm1.31 6.14h28.5v-4.75h-28.5v4.75zM19 27.237c0 4.365 3.551 7.917 7.917 7.917a7.88 7.88 0 005.006-1.789l4.725 4.724a.795.795 0 001.12 0 .792.792 0 000-1.119l-4.725-4.724a7.88 7.88 0 001.79-5.009c0-4.365-3.551-7.917-7.916-7.917-4.366 0-7.917 3.552-7.917 7.917zm1.583 0a6.34 6.34 0 016.334-6.333 6.34 6.34 0 016.333 6.333 6.34 6.34 0 01-6.333 6.333 6.34 6.34 0 01-6.334-6.333zm-8.708-9.5h7.917a.792.792 0 000-1.583h-7.917a.792.792 0 000 1.583z"/></mask><path fill-rule="evenodd" clip-rule="evenodd" d="M28.964 5.07L25.8 1.904H5.87L2.705 5.07h26.26zm-28.69.194l4.71-4.71A.786.786 0 015.543.32h20.583c.21 0 .412.084.56.231l4.75 4.75a.79.79 0 01.23.611v6.283a.792.792 0 01-.791.792h-.791v4.054a.792.792 0 01-1.584 0v-4.054H3.167v16.625c0 .436.356.792.791.792h12.667a.792.792 0 010 1.583H3.958a2.378 2.378 0 01-2.375-2.375V12.987H.792A.792.792 0 010 12.195V5.862a.79.79 0 01.273-.598zm1.31 6.14h28.5v-4.75h-28.5v4.75zM19 27.237c0 4.365 3.551 7.917 7.917 7.917a7.88 7.88 0 005.006-1.789l4.725 4.724a.795.795 0 001.12 0 .792.792 0 000-1.119l-4.725-4.724a7.88 7.88 0 001.79-5.009c0-4.365-3.551-7.917-7.916-7.917-4.366 0-7.917 3.552-7.917 7.917zm1.583 0a6.34 6.34 0 016.334-6.333 6.34 6.34 0 016.333 6.333 6.34 6.34 0 01-6.333 6.333 6.34 6.34 0 01-6.334-6.333zm-8.708-9.5h7.917a.792.792 0 000-1.583h-7.917a.792.792 0 000 1.583z" fill="#236EFF"/><path d="M28.964 5.07v.1h.241l-.17-.17-.07.07zM25.8 1.904l.07-.071-.03-.03h-.04v.1zm-19.928 0v-.1H5.83l-.029.029.07.07zM2.705 5.07L2.635 5l-.171.17h.241v-.1zm-2.432.194l.066.075.005-.005-.07-.07zM4.984.554l.07.07h.001l-.071-.07zM26.687.55l.07-.07-.07.07zm4.75 4.75l-.071.071.07-.07zm.23.611l-.1-.006v.006h.1zm-1.584 7.075v-.1h-.1v.1h.1zm-1.583 0h.1v-.1h-.1v.1zm-25.333 0v-.1h-.1v.1h.1zm-1.584 0h.1v-.1h-.1v.1zm28.5-1.583v.1h.1v-.1h-.1zm-28.5 0h-.1v.1h.1v-.1zm28.5-4.75h.1v-.1h-.1v.1zm-28.5 0v-.1h-.1v.1h.1zm30.34 26.711l.071-.07-.064-.065-.07.058.064.077zm4.725 4.724l-.07.071.07-.07zm1.12-1.119l.07-.07-.07.07zm-4.725-4.724l-.077-.064-.058.07.064.064.071-.07zM29.035 5l-3.166-3.167-.141.141 3.165 3.167.142-.141zm-3.236-3.196H5.87v.2h19.928v-.2zm-20 .029L2.635 5l.142.141L5.94 1.974l-.14-.141zM28.965 4.97H2.705v.2h26.26v-.2zm-28.62.364l4.71-4.71-.14-.142L.202 5.193l.141.141zm4.71-4.71A.686.686 0 015.543.42v-.2a.886.886 0 00-.63.263l.142.14zM5.543.42h20.583v-.2H5.543v.2zm20.583 0c.184 0 .36.074.49.203l.141-.143a.897.897 0 00-.63-.26v.2zm.49.202l4.75 4.75.142-.141-4.75-4.75-.142.141zm4.75 4.75a.69.69 0 01.2.534l.2.013a.89.89 0 00-.258-.688l-.142.141zm.4 6.823V5.912h-.2v6.283h.2zm-.891.892c.492 0 .892-.4.892-.892h-.2c0 .382-.31.692-.692.692v.2zm-.791 0h.791v-.2h-.791v.2zm.1 3.954v-4.054h-.2v4.054h.2zm-.892.891c.492 0 .891-.4.891-.891h-.2c0 .381-.31.691-.691.691v.2zm-.892-.891c0 .492.4.891.892.891v-.2a.692.692 0 01-.692-.691h-.2zm0-4.054v4.054h.2v-4.054h-.2zm-25.233.1H28.5v-.2H3.167v.2zm.1 16.525V12.987h-.2v16.625h.2zm.691.692a.694.694 0 01-.691-.692h-.2c0 .49.4.892.891.892v-.2zm12.667 0H3.958v.2h12.667v-.2zm.892.892c0-.493-.4-.892-.892-.892v.2c.382 0 .692.31.692.691h.2zm-.892.891c.492 0 .892-.4.892-.892h-.2c0 .382-.31.692-.692.692v.2zm-12.667 0h12.667v-.2H3.958v.2zm-2.475-2.475a2.478 2.478 0 002.475 2.475v-.2a2.278 2.278 0 01-2.275-2.275h-.2zm0-16.625v16.625h.2V12.987h-.2zm-.691.1h.791v-.2H.792v.2zm-.892-.892c0 .492.4.892.892.892v-.2a.692.692 0 01-.692-.692h-.2zm0-6.333v6.333h.2V5.862h-.2zm.308-.674a.89.89 0 00-.308.674h.2a.69.69 0 01.239-.523l-.131-.15zm29.875 6.116h-28.5v.2h28.5v-.2zm-.1-4.65v4.75h.2v-4.75h-.2zm-28.4.1h28.5v-.2h-28.5v.2zm.1 4.65v-4.75h-.2v4.75h.2zm25.234 23.65c-4.31 0-7.817-3.507-7.817-7.817h-.2c0 4.42 3.596 8.017 8.017 8.017v-.2zm4.943-1.766a7.78 7.78 0 01-4.943 1.766v.2a7.98 7.98 0 005.07-1.812l-.127-.154zm4.859 4.73l-4.725-4.724-.141.142 4.724 4.724.142-.141zm.49.203a.696.696 0 01-.49-.203l-.142.142c.175.173.403.26.631.26v-.2zm.488-.202a.689.689 0 01-.489.202v.2a.889.889 0 00.63-.26l-.141-.142zm0-.978c.27.27.27.708 0 .978l.141.141a.892.892 0 000-1.26l-.141.14zm-4.725-4.724l4.725 4.724.141-.142-4.724-4.724-.142.142zm1.761-5.08a7.78 7.78 0 01-1.767 4.945l.154.127a7.98 7.98 0 001.813-5.072h-.2zm-7.816-7.817c4.31 0 7.816 3.507 7.816 7.817h.2c0-4.42-3.596-8.017-8.016-8.017v.2zM19.1 27.237c0-4.31 3.507-7.817 7.817-7.817v-.2c-4.42 0-8.017 3.597-8.017 8.017h.2zm7.817-6.433a6.44 6.44 0 00-6.434 6.433h.2a6.24 6.24 0 016.234-6.233v-.2zm6.433 6.433a6.44 6.44 0 00-6.433-6.433v.2a6.24 6.24 0 016.233 6.233h.2zm-6.433 6.433a6.44 6.44 0 006.433-6.433h-.2a6.24 6.24 0 01-6.233 6.233v.2zm-6.434-6.433a6.44 6.44 0 006.434 6.433v-.2a6.24 6.24 0 01-6.234-6.233h-.2zm-.691-9.6h-7.917v.2h7.917v-.2zm.691-.692c0 .382-.31.692-.691.692v.2c.492 0 .891-.4.891-.892h-.2zm-.691-.691c.382 0 .691.31.691.691h.2a.891.891 0 00-.891-.891v.2zm-7.917 0h7.917v-.2h-7.917v.2zm-.691.691c0-.381.31-.691.691-.691v-.2c-.492 0-.892.4-.892.892h.2zm.691.692a.692.692 0 01-.691-.692h-.2c0 .493.399.892.891.892v-.2z" fill="#236EFF" mask="url(#a)"/></g><defs><clipPath id="clip0"><path fill="#fff" transform="translate(0 .32)" d="M0 0h38v38H0z"/></clipPath></defs></svg>
